X:7527
T:Three Cans Morris
O:england
M:4/4
L:1/16
K:G
B4 (3A2B2A2 G4g4|f4e4d8|B4 (3A2B2A2 G4g4|f4e4d8|g3dB3G A8|g3dB3G A8|B4 (
3A2B2A2 G4g4|B4A4G8||B4 (3A2B2A2 G4g4|f4e4d8|B4 (3A2B2A2 G4g4|f4e4d8|g3d
B3G A8|g3dB3G A8|B4 (3A2B2A2 G4g4|f4a4g8||


